!!!!SEGMENT: pl-wn--sd-xvi-qu-273--073_gomolka-mikolaj--niech-co-chce-bedzie-zyw-pan-ludu-swemu.krn
!!!cenid: 15xx:278
!!!COM: Gomółka, Mikołaj
!!!COM-rismid: pe30013343
!!!CDT: ~1535->1591/04/30
!!!CNT: Polish
!!!GTL: Melodiae na psalterz polski
!!!OTL: LXXIII. Niech co chce będzie, żyw Pan ludu swemu
!!!ONB: PSALM LXXIII. Quàm bonus Israhel deus:
!!!PDT: 1580
!!!AGN: Sacred
!!!SMS-siglum: PL-Wn
!!!SMS-shelfmark: SD XVI.Qu.273
!!!SMS-shelfwork: 073 G
!!!NIFC-rismid:
!!!ONB-nifc: Melodiae na psalterz polski
**kern	**text	**kern	**text	**kern	**text	**kern	**text
*part4	*part4	*part3	*part3	*part2	*part2	*part1	*part1
*staff4	*staff4	*staff3	*staff3	*staff2	*staff2	*staff1	*staff1
*clefF3	*	*clefC3	*	*clefC2	*	*clefG2	*
*k[b-B-]	*	*k[b-]	*	*k[b-]	*	*k[b-]	*
*F:	*	*F:	*	*F:	*	*F:	*
*M2/1	*	*M2/1	*	*M2/1	*	*M2/1	*
*met(C|)	*	*met(C|)	*	*met(C|)	*	*met(C|)	*
*I"BASSUS.	*	*I"TENOR.	*	*I"ALTUS.	*	*I"CANTUS.	*
=1-	=1	=1-	=1	=1-	=1	=1-	=1
!LO:TX:t=P:dwa bemole przy kluczu:problem	!	!	!	!	!	!	!
1F\	Niech	1c\	Niech	1a\	Niech	1cc\	Niech
2B-\	co	4d\	co	2b-\	co	2b-/	co
.	.	4e\	.	.	.	.	.
2F/	chce	1f\	chce	2cc\	chce	2a/	ch(ce)
=2-	=2	=2-	=2	=2-	=2	=2-	=2
1c\	bę-	.	.	2.cc\	bę-	1g/	bę-
.	.	2e\	bę-	.	.	.	.
.	.	.	.	4b-\	.	.	.
2F/	-(dzie,)	2f\	.	4a\	-(dzie,)	2f/	-(dzie,)
.	.	.	.	4g\	.	.	.
2F/	żyw	1c\	-(dzie,)	2f\	żyw	1cc\	żyw
=3-	=3	=3-	=3	=3-	=3	=3-	=3
1c\	pan	.	.	2.e/	pan	.	.
.	.	2c/	żyw	.	.	2a/	p(an)
.	.	.	.	4c/	.	.	.
2B-\	lu-	2G/	pan	4d/	lu-	2dd\	lu-
.	.	.	.	4e/	.	.	.
2A\	-du	2A/	.	1f\	-du	2cc\	-(du)
=4-	=4	=4-	=4	=4-	=4	=4-	=4
1G\	swe-	4B/	lu-	.	.	1b-\	swe-
.	.	2c/	.	.	.	.	.
.	.	.	.	2e/	swe-	.	.
!	!	!LO:SIC:s=4Bn	!	!	!	!	!
.	.	4B-y/	-du	.	.	.	.
2F/	-(mu)	2c/	swe-	2f\	.	2a/	-(mu,)
2C/	I	2c/	-(mu,)	2e/	-(mu,)	2g/	I
=5-	=5	=5-	=5	=5-	=5	=5-	=5
2C/	zná,	2c/	.	2e/	I	2g/	zná,
2C/	kto	2c/	I	2e/	zna	2g/	k(to)
2D/	szczé-	2A/	zna,	2d/	kto	2.f/	sz(czé-
2BB-/	-(rym)	2B-/	.	2d/	szczé-	.	.
.	.	.	.	.	.	4e/	-rym)
=6-	=6	=6-	=6	=6-	=6	=6-	=6
1D/	ser-	1F/	kto	4A/	-(rym)	1d/	ser-
.	.	.	.	4G/	.	.	.
.	.	.	.	4A/	ser-	.	.
.	.	.	.	4B-/	.	.	.
2C/	-(cem)	4G/	szczé-	2c/	-c(em)	2e/	-c(em)
.	.	4A/	.	.	.	.	.
2BB-/	słu-	2.B-/	-(rym)	1d/	słu-	4b-/	słu-
.	.	.	.	.	.	4a/	.
=7-	=7	=7-	=7	=7-	=7	=7-	=7
1D/	-(ży)	.	.	.	.	4g/	.
.	.	4A/	ser-	.	.	4f/	.
.	.	4G/	-(cem)	2B-/	-ży	1f/	-ży
.	.	4F/	słu-	.	.	.	.
1C/	ie-	1G/	-(ży)	2.c/	ie-	.	.
.	.	.	.	.	.	2e/	ie-
.	.	.	.	4B-/	.	.	.
=8-	=8	=8-	=8	=8-	=8	=8-	=8
*	*	*00/left	*	*	*	*	*
000F\	-mu.	00F/	ie-	00A/;	-mu.	000f/	-mu.
.	.	00F/	-mu.	00ryy	.	.	.
==	==	==	==	==	==	==	==
*-	*-	*-	*-	*-	*-	*-	*-
!!!RDF**kern: l = terminal long
!!!system-decoration: s1,s2,s3,s4
!!!ENC: Marta Lawrence
!!!END: 2020-02-13
!!!URL-scan: https://polona.pl/item/melodiae-na-psalterz-polski,Nzk3MTM4ODQ/175 Scan on Polona
!!!IIIF: https://polona.pl/iiif/item/Nzk3MTM4ODQ/manifest.json
